src/icons/phone.svg

<svg width="16" height="17" viewBox="0 0 16 17" fill="none" xmlns="http://www.w3.org/2000/svg">
<path d="M14.6667 11.78V13.78C14.6674 13.9657 14.6294 14.1494 14.555 14.3196C14.4806 14.4897 14.3715 14.6424 14.2347 14.7679C14.0979 14.8934 13.9364 14.989 13.7605 15.0485C13.5846 15.1079 13.3983 15.13 13.2133 15.1133C11.1619 14.8904 9.19134 14.1894 7.46001 13.0667C5.84923 12.0431 4.48356 10.6774 3.46001 9.06666C2.33333 7.32747 1.63217 5.34733 1.41334 3.28666C1.39668 3.10231 1.41859 2.91651 1.47767 2.74108C1.53676 2.56566 1.63172 2.40446 1.75652 2.26775C1.88131 2.13103 2.03321 2.0218 2.20253 1.94701C2.37186 1.87222 2.5549 1.83351 2.74001 1.83333H4.74001C5.06354 1.83015 5.3772 1.94472 5.62251 2.15569C5.86783 2.36666 6.02806 2.65963 6.07334 2.98C6.15775 3.62004 6.31431 4.24848 6.54001 4.85333C6.6297 5.09195 6.64911 5.35127 6.59594 5.60058C6.54277 5.8499 6.41925 6.07874 6.24001 6.26L5.39334 7.10666C6.34238 8.77569 7.72431 10.1576 9.39334 11.1067L10.24 10.26C10.4213 10.0808 10.6501 9.95723 10.8994 9.90406C11.1487 9.85089 11.4081 9.8703 11.6467 9.96C12.2515 10.1857 12.88 10.3422 13.52 10.4267C13.8439 10.4724 14.1396 10.6355 14.351 10.885C14.5624 11.1345 14.6748 11.453 14.6667 11.78Z" stroke="white" stroke-width="1.5" stroke-linecap="round" stroke-linejoin="round"/>

<svg width="16" height="17" fill="none" xmlns="http://www.w3.org/2000/svg">
  <path d="M14.67 11.78v2a1.33 1.33 0 0 1-1.46 1.33 13.2 13.2 0 0 1-5.75-2.04 13 13 0 0 1-4-4 13.2 13.2 0 0 1-2.05-5.78 1.33 1.33 0 0 1 1.33-1.46h2a1.33 1.33 0 0 1 1.33 1.15c.09.64.24 1.27.47 1.87a1.33 1.33 0 0 1-.3 1.41l-.85.85a10.67 10.67 0 0 0 4 4l.85-.85a1.33 1.33 0 0 1 1.4-.3c.61.23 1.24.38 1.88.47a1.33 1.33 0 0 1 1.15 1.35Z" stroke="#fff" stroke-width="1.5" stroke-linecap="round" stroke-linejoin="round"/>
</svg>
